!!!OTL: Xinniang xiatian ba yangcha
!!!ARE: Asia, China,ÿAnhui
!! III, 535
!!!SCT: C2046
!!!YEM: Copyright 1995, estate of Helmut Schaffrath.
**kern
*ICvox
*Ivox
*M2/4
*k[f#c#g#]
*A:
{8.a
16b
8ee
16cc#
16b
=1
4f#
4f#}
=2
{8.a
16b
8ee
16cc#
16b
=3
16cc#
16b
16cc#
16a
4b}
=4
{16cc#
16b
16cc#
16a
4b}
=5
{16b
16b
16b
16cc#
8b
16a
16f#
=6
16f#
16e
16f#
16a
4e}
=7
{8f#
16b
16cc#
8.a
16f#
=8
8.f#
16c#
4e}
==
!!!AGN: Haozi, Chayang
!!!AMT: simple duple
!!!AIN: vox
!!!EED: Helmut Schaffrath
!!!EEV: 1.0
*-
